packages/kaspersky-hexa-ui-icons/src/iconsSVGs/16/WeiboColor.svg

<svg width="16" height="16" viewBox="0 0 16 16" fill="none" xmlns="http://www.w3.org/2000/svg">
<path d="M1.75138 10.228C1.75138 11.9343 3.97278 13.3179 6.71357 13.3179C9.45437 13.3179 11.6758 11.9341 11.6758 10.228C11.6758 8.52192 9.45417 7.13827 6.71357 7.13827C3.97297 7.13827 1.75138 8.52172 1.75138 10.228Z" fill="white"/>
<path d="M6.82917 13.0664C4.4036 13.3057 2.30982 12.2096 2.15201 10.6169C1.9946 9.02457 3.83394 7.53962 6.25912 7.29979C8.68488 7.05976 10.7789 8.15624 10.9363 9.74815C11.0935 11.341 9.25494 12.8264 6.82917 13.0664ZM11.6809 7.77984C11.4746 7.71827 11.3331 7.67599 11.4411 7.40499C11.6751 6.81623 11.6992 6.30852 11.4455 5.94615C10.97 5.26679 9.66855 5.30322 8.17678 5.92803C8.17678 5.92705 7.70842 6.13298 7.82804 5.76145C8.05755 5.02365 8.02287 4.40586 7.66575 4.04914C6.85664 3.23925 4.70441 4.07972 2.85864 5.92471C1.47656 7.307 0.674072 8.77188 0.674072 10.0386C0.674072 12.4617 3.78133 13.9347 6.82119 13.9347C10.8059 13.9347 13.4567 11.6194 13.4567 9.78147C13.4567 8.67077 12.5214 8.04051 11.6809 7.77984Z" fill="#E6162D"/>
<path d="M14.3267 3.3458C13.3644 2.27894 11.9449 1.87234 10.6347 2.15075C10.5627 2.16614 10.494 2.19556 10.4333 2.23735C10.3726 2.27914 10.3208 2.33247 10.2807 2.3943C10.2407 2.45613 10.2132 2.52524 10.1998 2.59769C10.1865 2.67014 10.1875 2.74451 10.2029 2.81656C10.2183 2.88861 10.2477 2.95692 10.2895 3.01759C10.3313 3.07826 10.3846 3.13011 10.4465 3.17017C10.5083 3.21024 10.5774 3.23773 10.6498 3.25108C10.7223 3.26444 10.7967 3.26339 10.8687 3.248C11.8008 3.05006 12.8094 3.33996 13.494 4.09744C13.8184 4.45695 14.0424 4.89554 14.1436 5.3691C14.2447 5.84267 14.2193 6.33451 14.0701 6.79518C14.0473 6.86529 14.0388 6.93939 14.0447 7.01288C14.0505 7.08636 14.0708 7.15796 14.1044 7.22358C14.1379 7.28921 14.1841 7.34756 14.2403 7.39531C14.2965 7.44305 14.3615 7.47924 14.4317 7.50181C14.5731 7.54754 14.7269 7.53528 14.8594 7.4677C14.9918 7.40012 15.092 7.28276 15.1379 7.14138L15.1381 7.13904C15.5488 5.8645 15.2893 4.41149 14.3267 3.3458Z" fill="#FF9933"/>
<path d="M12.8487 4.67932C12.3804 4.15972 11.6889 3.96236 11.0505 4.09816C10.987 4.10978 10.9264 4.13403 10.8724 4.16947C10.8184 4.20491 10.7721 4.25083 10.7362 4.3045C10.7002 4.35816 10.6755 4.41849 10.6633 4.48191C10.6511 4.54534 10.6517 4.61056 10.6652 4.67372C10.6787 4.73688 10.7047 4.7967 10.7417 4.84963C10.7787 4.90257 10.8259 4.94754 10.8806 4.98189C10.9353 5.01623 10.9963 5.03926 11.0601 5.0496C11.1238 5.05994 11.189 5.05738 11.2517 5.04208C11.4104 5.00816 11.5751 5.0169 11.7295 5.06669C11.8839 5.11647 12.0224 5.20594 12.1314 5.32614C12.2401 5.44663 12.3151 5.59367 12.3489 5.75242C12.3826 5.91116 12.3739 6.07601 12.3237 6.23032C12.2843 6.35219 12.2953 6.48471 12.3535 6.59876C12.4118 6.71282 12.513 6.79907 12.6348 6.83856C12.7567 6.87787 12.8893 6.86716 13.0033 6.80878C13.1173 6.7504 13.2035 6.64913 13.2428 6.52723C13.4435 5.90633 13.318 5.19872 12.8487 4.67932Z" fill="#FF9933"/>
<path d="M6.96291 10.1818C6.87796 10.3271 6.69054 10.3969 6.54364 10.3363C6.39908 10.2767 6.35369 10.1146 6.43591 9.97198C6.52046 9.83015 6.70087 9.76099 6.84484 9.81807C6.99135 9.87165 7.04395 10.0359 6.96291 10.1818ZM6.19004 11.1741C5.95547 11.5483 5.45301 11.7124 5.07447 11.5395C4.70158 11.3699 4.5915 10.9348 4.82646 10.5699C5.0581 10.2066 5.54361 10.0445 5.91923 10.2019C6.29914 10.364 6.42071 10.7959 6.19004 11.1741ZM7.07162 8.52482C5.91728 8.2244 4.61254 8.79972 4.11126 9.8169C3.60062 10.8541 4.0945 12.0056 5.26033 12.3822C6.46844 12.7716 7.89222 12.1749 8.38727 11.055C8.8757 9.96049 8.26609 8.83362 7.07162 8.52482Z" fill="black"/>
</svg>

<svg xmlns="http://www.w3.org/2000/svg" width="16" height="16" fill="none" viewBox="0 0 16 16"><path fill="#fff" d="M1.7514 10.228c0 1.7063 2.2214 3.0899 4.9622 3.0899s4.9622-1.3838 4.9622-3.0899c0-1.706-2.2216-3.0897-4.9622-3.0897S1.7514 8.5217 1.7514 10.228"/><path fill="#e6162d" d="M6.8292 13.0664c-2.4256.2393-4.5194-.8568-4.6772-2.4495-.1574-1.5923 1.682-3.0773 4.1071-3.3171 2.4258-.24 4.5198.8564 4.6772 2.4484.1572 1.5928-1.6814 3.0782-4.1071 3.3182m4.8517-5.2866c-.2063-.0615-.3478-.1038-.2398-.3748.234-.5888.2581-1.0965.0044-1.4588-.4755-.6794-1.777-.643-3.2687-.0182 0-.001-.4684.205-.3488-.1665.2296-.7378.1949-1.3556-.1623-1.7124-.809-.8098-2.9613.0306-4.807 1.8756C1.4765 7.307.674 8.772.674 10.0386c0 2.4231 3.1072 3.8961 6.147 3.8961 3.9848 0 6.6356-2.3153 6.6356-4.1532 0-1.1107-.9353-1.741-1.7758-2.0017"/><path fill="#f93" d="M14.3267 3.3458c-.9623-1.0669-2.3818-1.4735-3.692-1.195a.5612.5612 0 0 0-.3452.8668.56.56 0 0 0 .3603.2335.56.56 0 0 0 .2189-.0031c.9321-.198 1.9407.092 2.6253.8494.3244.3595.5484.7981.6496 1.2717a2.76 2.76 0 0 1-.0735 1.426.56.56 0 0 0-.0254.2178.56.56 0 0 0 .1956.3824.56.56 0 0 0 .1914.1065.561.561 0 0 0 .7062-.3604l.0002-.0024c.4107-1.2745.1512-2.7275-.8114-3.7932"/><path fill="#f93" d="M12.8487 4.6793c-.4683-.5196-1.1598-.717-1.7982-.5811a.483.483 0 0 0-.3143.2063.482.482 0 0 0-.071.3692.483.483 0 0 0 .3949.3759.48.48 0 0 0 .1916-.0075.926.926 0 0 1 .4778.0246.926.926 0 0 1 .4019.2594.923.923 0 0 1 .1923.9042.4835.4835 0 0 0 .3111.6083.483.483 0 0 0 .608-.3114c.2007-.6209.0752-1.3285-.3941-1.8479"/><path fill="#000" d="M6.963 10.1818c-.085.1453-.2725.2151-.4194.1545-.1445-.0596-.19-.2217-.1077-.3643.0846-.1418.265-.211.409-.154.1464.0537.199.2179.118.3638m-.773.9923c-.2345.3742-.737.5383-1.1155.3654-.373-.1696-.483-.6047-.248-.9696.2316-.3633.7171-.5254 1.0927-.368.38.1621.5015.594.2708.9722m.8816-2.6493c-1.1543-.3004-2.459.275-2.9603 1.2921-.5107 1.0372-.0168 2.1887 1.149 2.5653 1.2081.3894 2.632-.2073 3.127-1.3272.4884-1.0945-.1212-2.2214-1.3157-2.5302"/></svg>
